img/youtube.svg

<svg fill="none" height="21" viewBox="0 0 31 21" width="31" xmlns="http://www.w3.org/2000/svg"><path d="m12.4626 14.7857 7.8818-4.2857-7.8818-4.28571zm17.5556-11.1857c.1974.67143.3341 1.57143.4252 2.71429.1063 1.14285.1518 2.12857.1518 2.98571l.0912 1.2c0 3.1286-.243 5.4286-.6682 6.9-.3797 1.2857-1.2605 2.1143-2.6273 2.4714-.7138.1857-2.0198.3143-4.0244.4-1.9742.1-3.7814.1429-5.4519.1429l-2.4147.0857c-6.3631 0-10.32676-.2286-11.89097-.6286-1.36678-.3571-2.24759-1.1857-2.62725-2.4714-.197424-.6714-.334102-1.5714-.42522-2.7143-.106305-1.1428-.151865-2.1286-.151865-2.9857l-.091118-1.2c0-3.12857.242983-5.42857.668203-6.9.37966-1.28571 1.26047-2.11429 2.62725-2.47143.71377-.185713 2.0198-.314284 4.02441-.399999 1.97424-.1 3.78146-.142857 5.45196-.142857l2.4146-.085714c6.3631 0 10.3268.228572 11.891.62857 1.3668.35714 2.2476 1.18572 2.6273 2.47143z" fill="#d94e4c"/></svg>

<svg width="31" height="21" viewBox="0 0 31 21" fill="none" xmlns="http://www.w3.org/2000/svg">
<path d="M12.4626 14.7857L20.3444 10.5L12.4626 6.21429V14.7857ZM30.0182 3.6C30.2156 4.27143 30.3523 5.17143 30.4434 6.31429C30.5497 7.45714 30.5952 8.44286 30.5952 9.3L30.6864 10.5C30.6864 13.6286 30.4434 15.9286 30.0182 17.4C29.6385 18.6857 28.7577 19.5143 27.3909 19.8714C26.6771 20.0571 25.3711 20.1857 23.3665 20.2714C21.3923 20.3714 19.5851 20.4143 17.9146 20.4143L15.4999 20.5C9.1368 20.5 5.17314 20.2714 3.60893 19.8714C2.24215 19.5143 1.36134 18.6857 0.98168 17.4C0.784256 16.7286 0.647578 15.8286 0.55646 14.6857C0.450155 13.5429 0.404595 12.5571 0.404595 11.7L0.313477 10.5C0.313477 7.37143 0.55646 5.07143 0.98168 3.6C1.36134 2.31429 2.24215 1.48571 3.60893 1.12857C4.3227 0.942857 5.62873 0.814286 7.63334 0.728571C9.60758 0.628571 11.4148 0.585714 13.0853 0.585714L15.4999 0.5C21.863 0.5 25.8267 0.728572 27.3909 1.12857C28.7577 1.48571 29.6385 2.31429 30.0182 3.6Z" fill="#D94E4C"/>
</svg>
